T: Jig Runrig, The
M: 6/8
L: 1/8
K: Dmaj
e/2f/2|"D"d2d BAA|FAA BAA|"G"Bdd "D"AAA|"Em"fee "A"efe|!
"D"d2d BAA|FAA BAA|"G"Bdd "D"Aff|"A7"edd "D"d2:|
|:a/2g/2|"D"faa "A"eaa|"D"daa "A"caa|"G"Bdd "D"AAA|"Em"fee [1"A"eag|"D"faa "A"eaa|"Bm"daa "F#m"caa|"G"Bdd "D"Aff|"A"edd "D"d2]:|
[2"A"efe|"D"d2d BAA|FAA BAA|"G"Bdd "D"Aff|"A7"edd "D"d3]||
